src/custom/assets/cow-swap/transaction-confirmed.svg

<svg fill="none" height="12" viewBox="0 0 21 12" width="21" xmlns="http://www.w3.org/2000/svg"><path d="m9.71916 8.11207 1.29444 1.29442 7.761-7.76102 1.2963 1.29625-9.0573 9.05728-5.83408-5.83406 1.29625-1.29625 1.94805 1.94804 1.29534 1.29443zm.00183-2.59251 4.53961-4.540556 1.2926 1.292586-4.5396 4.54056zm-2.59159 5.18414-1.29534 1.2953-5.83406-5.83406 1.29625-1.29625 1.29534 1.29533-.00091.00092z" fill="#3b7848"/></svg>

<svg width="21" height="12" viewBox="0 0 21 12" fill="none" xmlns="http://www.w3.org/2000/svg">
<path d="M9.71916 8.11207L11.0136 9.40649L18.7746 1.64547L20.0709 2.94172L11.0136 11.999L5.17952 6.16494L6.47577 4.86869L8.42382 6.81673L9.71916 8.11116V8.11207ZM9.72099 5.51956L14.2606 0.979004L15.5532 2.27159L11.0136 6.81215L9.72099 5.51956ZM7.1294 10.7037L5.83406 11.999L0 6.16494L1.29625 4.86869L2.59159 6.16402L2.59068 6.16494L7.1294 10.7037Z" fill="#3B7848"/>
</svg>
